!!!OTL: O REGIMENT MEIN VATERLAND
!!!ARE: Europa, Mitteleuropa, Deutschland, Hessen, Nassau; Elsass
!!!SCT: E1389
!!!YEM: Copyright 1995, estate of Helmut Schaffrath.
**kern
*ICvox
*Ivox
*M3/4
*k[b-e-]
*B-:
{8f
=1
8d
8f
4.b-
8f
=2
8.a
16g
4.g}
{8g
=3
8g
8b-
4.a
8e-
=4
8.g
16f
4.f}
{8f
=5
8d
8f
4.dd
8dd
=6
8.cc
16g
4.cc}
{8b-
=7
8.a
16g
8f
8f
8g
8a
=8
2b-
8r}
{8f
=9
8d
8f
4.dd
8dd
=10
8.cc
16g
4.cc}
{8b-
=11
8.a
16g
8f
8f
8g
8a
=12
2b-
8r}
==
!!!AGN: Staende -, Soldaten - Lied
!!!ONB: ESAC (Essen Associative Code) Database: ERK3
!!!AMT: simple triple
!!!AIN: vox
!!!EED: Helmut Schaffrath
!!!EEV: 1.0
*-
